icon/fa/people-roof.svg

<svg xmlns="http://www.w3.org/2000/svg" viewBox="0 0 640 512"><!--! Font Awesome Free 6.1.2 by @fontawesome - https://fontawesome.com License - https://fontawesome.com/license/free (Icons: CC BY 4.0, Fonts: SIL OFL 1.1, Code: MIT License) Copyright 2022 Fonticons, Inc.--><path d="M623.5 164c14.6 8.6 21.1 28.1 11.6 43.5-7.7 14.6-27.2 21.1-42.6 11.6L319.1 68.61 47.54 219.1c-15.45 9.5-34.93 3-43.515-11.6-8.583-15.4-3.017-34.9 12.435-43.5L304.5 4.027c9.6-5.369 21.4-5.369 31 0L623.5 164zm-344.4 36c0-22.1 18.8-40 40-40 23 0 40 17.9 40 40s-17 40-40 40c-21.2 0-40-17.9-40-40zm-176 96c0-22.1 18.8-40 40-40 23 0 40 17.9 40 40s-17 40-40 40c-21.2 0-40-17.9-40-40zm432 0c0 22.1-17 40-40 40-21.2 0-40-17.9-40-40s18.8-40 40-40c23 0 40 17.9 40 40zM226.9 491.4l-27.8-49.9V480c0 17.7-13.4 32-32 32h-48c-16.8 0-32-14.3-32-32v-38.5l-25.97 49.9c-6.29 11.6-20.84 16-32.51 9.7-11.67-6.3-16.04-20.8-9.75-32.5l37.87-70.3C72.09 369.8 101.9 352 134.2 352h19.6c16.3 0 31.9 4.5 45.4 12.6l33.5-62.3c15.4-28.5 45.2-47.2 77.5-47.2h19.6c32.3 0 62.1 18.7 77.5 47.2l33.5 62.3c13.5-8.1 29.1-12.6 45.4-12.6h19.6c32.3 0 62.1 17.8 77.5 46.3l37.8 70.3c6.3 11.7 1.9 26.2-9.7 32.5-11.7 6.3-26.2 1.9-32.5-9.7l-27.8-49.9V480c0 17.7-13.4 32-32 32h-48c-16.8 0-32-14.3-32-32v-38.5l-26 49.9c-6.3 11.6-20.8 16-32.5 9.7-12.5-6.3-16-20.8-9.7-32.5l36.3-67.5c-1.7-1.6-3.2-3.5-4.3-5.7l-27.8-49.9V400c0 17.7-13.4 32-32 32h-48c-16.8 0-32-14.3-32-32v-54.5l-26 49.9c-2 2.2-2.6 4.1-4.3 5.7l36.3 67.5c6.3 11.7 1.9 26.2-9.7 32.5-11.7 6.3-26.2 1.9-32.5-9.7z"/></svg>

<svg xmlns="http://www.w3.org/2000/svg" viewBox="0 0 640 512" height="1em" width="1em">
<!--! Font Awesome Free 6.1.2 by @fontawesome - https://fontawesome.com License - https://fontawesome.com/license/free (Icons: CC BY 4.0, Fonts: SIL OFL 1.1, Code: MIT License) Copyright 2022 Fonticons, Inc.-->
  <path d="M623.5 164C638.1 172.6 644.6 192.1 635.1 207.5C627.4 222.1 607.9 228.6 592.5 219.1L319.1 68.61L47.54 219.1C32.09 228.6 12.61 222.1 4.025 207.5C-4.558 192.1 1.008 172.6 16.46 164L304.5 4.027C314.1-1.342 325.9-1.342 335.5 4.027L623.5 164zM279.1 200C279.1 177.9 297.9 160 319.1 160C342.1 160 359.1 177.9 359.1 200C359.1 222.1 342.1 240 319.1 240C297.9 240 279.1 222.1 279.1 200zM103.1 296C103.1 273.9 121.9 256 143.1 256C166.1 256 183.1 273.9 183.1 296C183.1 318.1 166.1 336 143.1 336C121.9 336 103.1 318.1 103.1 296V296zM535.1 296C535.1 318.1 518.1 336 495.1 336C473.9 336 455.1 318.1 455.1 296C455.1 273.9 473.9 256 495.1 256C518.1 256 535.1 273.9 535.1 296zM226.9 491.4L199.1 441.5V480C199.1 497.7 185.7 512 167.1 512H119.1C102.3 512 87.1 497.7 87.1 480V441.5L61.13 491.4C54.84 503 40.29 507.4 28.62 501.1C16.95 494.8 12.58 480.3 18.87 468.6L56.74 398.3C72.09 369.8 101.9 352 134.2 352H153.8C170.1 352 185.7 356.5 199.2 364.6L232.7 302.3C248.1 273.8 277.9 255.1 310.2 255.1H329.8C362.1 255.1 391.9 273.8 407.3 302.3L440.8 364.6C454.3 356.5 469.9 352 486.2 352H505.8C538.1 352 567.9 369.8 583.3 398.3L621.1 468.6C627.4 480.3 623 494.8 611.4 501.1C599.7 507.4 585.2 503 578.9 491.4L551.1 441.5V480C551.1 497.7 537.7 512 519.1 512H471.1C454.3 512 439.1 497.7 439.1 480V441.5L413.1 491.4C406.8 503 392.3 507.4 380.6 501.1C368.1 494.8 364.6 480.3 370.9 468.6L407.2 401.1C405.5 399.5 404 397.6 402.9 395.4L375.1 345.5V400C375.1 417.7 361.7 432 343.1 432H295.1C278.3 432 263.1 417.7 263.1 400V345.5L237.1 395.4C235.1 397.6 234.5 399.5 232.8 401.1L269.1 468.6C275.4 480.3 271 494.8 259.4 501.1C247.7 507.4 233.2 503 226.9 491.4H226.9z"/>
</svg>
